X:3
T:Chassepain
C:Gilles Chabenat
M:2/4
L:1/8
R:bourree
Z:robin.beech@mcgill.ca
K:G
|: dz/A/ Ad | cB AB | Ez/F/ GB | AE FD |
dz/A/ Ad | cB AB | Ez/F/ GA | B^c d2 ::
BG Ed- | dB Ge- | e^c AB | ^cd c/B/A |
BG Ed- | dB Ge | d^c AF | GA FD :|
